X: 1
T: Mympwy Portheinon
M: 4/4
L: 1/8
R: hornpipe
K: Gmaj
|B2Bc dedc|B2Bc dedc|B2G2 GABG|A2D2 D2dc|
B2Bc dedc|B2Bc dedc|BdGB AcFA|1GFGA G2dc:|2GFGA G2Bd||
|:gfga gdBd|gfga gdBd|gfga b2g2|fefg afed|
edef gece|dcde dBGB|AGAB cAFA|1GFGA G2Bd:|2GFGA G2dc||
